public/img/quarter-icon-8.svg

<svg width="55" height="55" viewBox="0 0 55 55" fill="none" xmlns="http://www.w3.org/2000/svg">
<g clip-path="url(#clip0)">
<path d="M50.9454 44.8216L50.9212 44.7974L50.9494 44.7651L50.2272 44.1559L45.2083 39.492C45.2083 39.492 45.1196 39.5848 44.9744 39.722L44.8452 39.8672C43.6995 40.9364 40.0281 44.0308 35.7152 44.0913C35.6224 44.0913 35.5337 44.0913 35.4409 44.0913C33.1735 43.8412 30.9626 42.6268 28.7194 40.3715C24.9956 36.6275 20.8562 34.5982 16.4021 34.3198C16.2771 34.3198 16.152 34.3198 16.031 34.3198C15.3603 34.2604 14.6866 34.2429 14.0137 34.2674C7.30033 34.5417 2.31371 39.0401 0.619229 40.775C0.268229 41.1139 0.0463302 41.3438 0.00598539 41.3882L0.0301975 41.4124L0.00195312 41.4487L0.720091 42.0539L5.74302 46.7218C5.74302 46.7218 5.83178 46.629 5.97702 46.4878C6.01714 46.4369 6.06025 46.3884 6.10613 46.3426C7.25192 45.2694 10.9233 42.1749 15.2321 42.1185C15.3249 42.1185 15.4177 42.1185 15.5105 42.1185C17.7779 42.3646 19.9888 43.583 22.232 45.8383C25.9558 49.5823 30.0952 51.6076 34.5492 51.89C34.6743 51.89 34.7994 51.89 34.9204 51.89C35.5911 51.9494 36.2648 51.9669 36.9377 51.9424C43.647 51.6681 48.6377 47.1656 50.3321 45.4308C50.6831 45.0959 50.905 44.8659 50.9454 44.8175" fill="#FFD100"/>
<path d="M37.377 3.82313C37.8329 3.82313 38.2807 3.84733 38.6802 3.87961C39.6733 3.99305 40.6547 4.19284 41.6132 4.47671L39.3701 9.17689C38.9272 9.12042 38.4811 9.09212 38.0346 9.09216C36.838 9.09299 35.6509 9.30608 34.5287 9.72154L31.4625 5.00926C33.3364 4.22753 35.3465 3.8244 37.377 3.82313ZM37.377 1.92288C34.3326 1.92137 31.3422 2.72743 28.7109 4.25885L33.8186 12.1342C35.1052 11.3996 36.5611 11.013 38.0427 11.0126C38.8634 11.0093 39.6798 11.1318 40.4634 11.3757L44.2558 3.39144C42.5431 2.69111 40.7436 2.22561 38.9061 2.00761C38.4018 1.96726 37.9015 1.94306 37.3891 1.94306" fill="#FFD100"/>
<path d="M37.3772 13.1992C38.2804 13.1972 39.1725 13.3986 39.9872 13.7884C40.802 14.1783 41.5185 14.7466 42.0835 15.4513C42.6486 16.1559 43.0478 16.9787 43.2514 17.8587C43.455 18.7387 43.4578 19.6532 43.2596 20.5344C43.0614 21.4157 42.6673 22.2409 42.1066 22.949C41.5459 23.6571 40.8329 24.2299 40.0206 24.6247C39.2082 25.0196 38.3174 25.2265 37.4142 25.23C36.511 25.2335 35.6185 25.0336 34.8031 24.6451C34.5611 24.5079 34.315 24.3546 34.0648 24.1851C34.0004 24.1401 33.9297 24.1048 33.855 24.0802C32.821 23.3372 32.0495 22.2849 31.652 21.0752C31.2545 19.8654 31.2514 18.5607 31.6431 17.3491C32.0349 16.1375 32.8013 15.0815 33.8318 14.3335C34.8623 13.5855 36.1038 13.1841 37.3772 13.1871" fill="#FFD100"/>
<path d="M51.1874 13.5865C51.9943 15.7369 52.7003 19.142 51.5505 23.5316L47.2296 21.3247C47.5648 19.7301 47.473 18.0753 46.9633 16.5277L51.1874 13.5865ZM51.9298 10.7624L44.6152 15.8539C45.1523 16.8357 45.461 17.9261 45.5183 19.0437C45.5756 20.1614 45.38 21.2775 44.9461 22.3091L52.6842 26.2387C55.6455 18.3029 53.0877 12.6828 51.9338 10.7503" fill="#FFD100"/>
<path d="M34.5289 28.6675C35.7407 29.1262 37.0256 29.3613 38.3213 29.3614C38.6974 29.3614 39.0731 29.3412 39.447 29.3009L41.6336 33.9083C40.3438 34.2958 39.0125 34.5287 37.6677 34.6022H37.3934C35.3531 34.5966 33.3344 34.1851 31.4546 33.3919L34.5289 28.6675ZM33.8269 26.2468L28.7031 34.1503C31.339 35.6942 34.3387 36.5075 37.3934 36.5065H37.6879C39.9478 36.3846 42.1703 35.8784 44.2601 35.0097L40.5201 27.1505C39.7981 27.3456 39.0531 27.4433 38.3052 27.441C36.7611 27.4358 35.2441 27.0343 33.8995 26.275L33.8108 26.2347" fill="#FFD100"/>
<path d="M23.1667 13.7278L27.2012 16.5277C26.6787 18.101 26.5908 19.7863 26.947 21.4054L23.2514 23.4226C22.1097 19.1824 22.5535 15.8418 23.1788 13.7157L23.1667 13.7278ZM22.2912 10.7826L22.267 10.831C21.2543 12.8846 19.2492 18.4562 22.15 26.1984L29.2104 22.3091C28.7731 21.2744 28.5751 20.1544 28.631 19.0325C28.6868 17.9106 28.9952 16.8158 29.5331 15.8297L22.2912 10.7826Z" fill="#FFD100"/>
<path d="M30.813 23.588C31.2162 24.1888 31.6994 24.7317 32.2493 25.2018L27.1134 33.1215C25.2859 31.767 23.74 30.0691 22.5625 28.1228L30.813 23.588Z" fill="#FFD100"/>
<path d="M45.9513 34.223L41.8926 25.682C42.6249 25.1714 43.2648 24.5397 43.7848 23.814L52.2047 28.1107C50.6763 30.6487 48.5235 32.7529 45.9513 34.223Z" fill="#FFD100"/>
<path d="M43.5452 14.2966C43.0678 13.6987 42.5066 13.1728 41.8789 12.7352L45.9134 4.19424C48.0008 5.38377 49.8184 6.99392 51.251 8.92266L43.5452 14.2966Z" fill="#FFD100"/>
<path d="M27.138 5.29172L32.2698 13.2074C31.7947 13.6128 31.3694 14.0733 31.003 14.5791L23.2891 9.20517C24.3587 7.70675 25.6575 6.3861 27.138 5.29172Z" fill="#FFD100"/>
</g>
<defs>
<clipPath id="clip0">
<rect width="54.0621" height="54.0621" fill="white"/>
</clipPath>
</defs>
</svg>

<svg width="55" height="55" fill="none" xmlns="http://www.w3.org/2000/svg"><g clip-path="url(#clip0)" fill="#FFD100"><path d="M50.945 44.822l-.024-.025.028-.032-.722-.61-5.019-4.663s-.088.093-.234.23l-.129.145c-1.145 1.07-4.817 4.164-9.13 4.224h-.274c-2.268-.25-4.478-1.464-6.722-3.72-3.723-3.744-7.863-5.773-12.317-6.051h-.371a16.19 16.19 0 00-2.017-.053C7.3 34.542 2.314 39.04.619 40.775c-.35.339-.573.569-.613.613l.024.024-.028.037.718.605 5.023 4.668s.089-.093.234-.234c.04-.051.083-.1.13-.145 1.145-1.074 4.816-4.168 9.125-4.225h.279c2.267.247 4.478 1.465 6.721 3.72 3.724 3.744 7.863 5.77 12.317 6.052h.371c.671.06 1.345.077 2.018.052 6.709-.274 11.7-4.776 13.394-6.511.351-.335.573-.565.613-.613M37.377 3.823c.456 0 .904.024 1.303.057.993.113 1.975.313 2.933.597l-2.243 4.7a10.552 10.552 0 00-1.335-.085 10.109 10.109 0 00-3.506.63l-3.067-4.713a15.387 15.387 0 015.915-1.186zm0-1.9a17.212 17.212 0 00-8.666 2.336l5.108 7.875a8.524 8.524 0 014.224-1.121 8.008 8.008 0 012.42.363l3.793-7.985a20.523 20.523 0 00-5.35-1.383 18.909 18.909 0 00-1.517-.065M37.377 13.2a6.017 6.017 0 11-2.574 11.445c-.242-.137-.488-.29-.738-.46a.807.807 0 00-.21-.105 6.011 6.011 0 013.522-10.893m13.81.399c.807 2.15 1.513 5.556.364 9.946l-4.321-2.207a9.251 9.251 0 00-.267-4.797l4.224-2.941zm.743-2.824l-7.315 5.092a7.44 7.44 0 01.331 6.455l7.738 3.93c2.962-7.936.404-13.556-.75-15.489M34.529 28.668a10.715 10.715 0 004.918.633l2.187 4.607a17.01 17.01 0 01-3.966.694h-.275a15.384 15.384 0 01-5.938-1.21l3.074-4.725zm-.702-2.421l-5.124 7.903a17.183 17.183 0 008.69 2.357h.295a19.917 19.917 0 006.572-1.497l-3.74-7.86a8.392 8.392 0 01-2.215.291 9.022 9.022 0 01-4.405-1.166l-.09-.04M23.167 13.728l4.034 2.8a9.203 9.203 0 00-.254 4.877l-3.696 2.018c-1.141-4.24-.698-7.581-.072-9.707l-.012.012zm-.876-2.945l-.024.048c-1.013 2.054-3.018 7.625-.117 15.367l7.06-3.889a7.463 7.463 0 01.323-6.48l-7.242-5.046zm8.522 12.805c.403.6.886 1.144 1.436 1.614l-5.136 7.92a17.493 17.493 0 01-4.55-5l8.25-4.534zm15.138 10.635l-4.058-8.541a7.854 7.854 0 001.892-1.868l8.42 4.297a17.349 17.349 0 01-6.254 6.112zm-2.406-19.926a7.951 7.951 0 00-1.666-1.562l4.034-8.54a17.349 17.349 0 015.338 4.728l-7.706 5.374zM27.138 5.292l5.132 7.915c-.475.406-.9.866-1.267 1.372l-7.714-5.374a17.536 17.536 0 013.849-3.913z"/></g><defs><clipPath id="clip0"><path fill="#fff" d="M0 0h54.062v54.062H0z"/></clipPath></defs></svg>
